job-listings-with-filtering/img/logo-manage.svg

<svg width="88" height="88" viewBox="0 0 88 88" fill="none" xmlns="http://www.w3.org/2000/svg">
<g id="Group 9">
<g id="Oval" filter="url(#filter0_i)">
<circle cx="44" cy="44" r="44" fill="#F3603C"/>
</g>
<g id="Group 12">
<g id="Group 6">
<g id="manage 2">
<path id="manage" fill-rule="evenodd" clip-rule="evenodd" d="M62.8556 48.892C63.3597 48.892 63.8105 48.8334 64.2082 48.7162C64.6059 48.599 64.94 48.4359 65.2105 48.2268C65.4811 48.0177 65.7053 47.7615 65.8834 47.4582C66.0614 47.1549 66.1897 46.824 66.2683 46.4655C66.347 46.1071 66.3863 45.7142 66.3863 45.2868V39.1103H64.7978V39.8341H64.7701C64.4834 39.563 64.1539 39.3562 63.7816 39.2137C63.4094 39.0712 63.0221 39 62.6198 39C61.9863 39 61.4175 39.1494 60.9134 39.4481C60.4094 39.7468 60.0175 40.1615 59.7377 40.6923C59.4579 41.2231 59.3181 41.8194 59.3181 42.4812C59.3181 43.1521 59.4649 43.7472 59.7585 44.2665C60.0522 44.7858 60.4556 45.1845 60.9689 45.4625C61.4822 45.7406 62.0602 45.8796 62.703 45.8796C63.5631 45.8796 64.2637 45.5993 64.8048 45.0386H64.8325V45.7693C64.8325 46.2564 64.6522 46.6608 64.2915 46.9825C63.9308 47.3042 63.4221 47.4651 62.7654 47.4651C62.3169 47.4651 61.9227 47.4099 61.5828 47.2996C61.2429 47.1893 60.851 47.017 60.4071 46.7826L60.0325 48.1751C60.4209 48.4049 60.8579 48.5818 61.3435 48.7059C61.829 48.83 62.3331 48.892 62.8556 48.892ZM29.8059 42.5639V46.0037H28.2175V42.4122C28.2175 41.0979 27.7574 40.4407 26.8372 40.4407C26.3516 40.4407 25.9528 40.6303 25.6406 41.0094C25.3285 41.3886 25.1724 41.9067 25.1724 42.5639V45.9968H23.584V39.1103H25.1724V40.0616H25.1932C25.4753 39.7215 25.8048 39.4607 26.1817 39.2792C26.5585 39.0977 26.9505 39.0069 27.3574 39.0069C28.3239 39.0069 29.0129 39.3883 29.4244 40.1512H29.4522C29.7435 39.779 30.1019 39.4952 30.5273 39.2999C30.9528 39.1045 31.4221 39.0069 31.9354 39.0069C32.7169 39.0069 33.3181 39.2562 33.7389 39.7548C34.1597 40.2534 34.3701 41.006 34.3701 42.0124V46.0037H32.7817V42.4122C32.7817 41.0979 32.3285 40.4407 31.4221 40.4407C30.9597 40.4407 30.5747 40.6303 30.2672 41.0094C29.9597 41.3886 29.8059 41.9067 29.8059 42.5639ZM40.8741 45.0731C40.347 45.7624 39.6117 46.1071 38.6684 46.1071C38.1921 46.1071 37.747 46.0232 37.3331 45.8555C36.9192 45.6877 36.5643 45.4522 36.2684 45.1489C35.9724 44.8456 35.7389 44.4733 35.5678 44.0322C35.3967 43.591 35.3111 43.1085 35.3111 42.5846C35.3111 42.0744 35.3967 41.5965 35.5678 41.1507C35.7389 40.705 35.9724 40.3258 36.2684 40.0133C36.5643 39.7008 36.9181 39.455 37.3296 39.2757C37.7412 39.0965 38.1828 39.0069 38.6545 39.0069C39.5562 39.0069 40.2707 39.3171 40.7978 39.9375H40.8256V39.1103H42.414V45.9968H40.895V45.0731H40.8741ZM38.9181 44.6733C38.3308 44.6733 37.8522 44.4791 37.4822 44.0908C37.1123 43.7024 36.9273 43.2027 36.9273 42.5915C36.9273 41.9435 37.1181 41.423 37.4996 41.0301C37.8811 40.6372 38.3562 40.4407 38.925 40.4407C39.4892 40.4407 39.9574 40.6464 40.3296 41.0577C40.7019 41.469 40.888 41.9802 40.888 42.5915C40.888 43.2027 40.6973 43.7024 40.3158 44.0908C39.9343 44.4791 39.4684 44.6733 38.9181 44.6733ZM50.3053 41.9435V46.0037H48.7169V42.3502C48.7169 41.9917 48.6845 41.6884 48.6198 41.4403C48.5551 41.1921 48.4556 40.9956 48.3215 40.8509C48.1874 40.7061 48.0314 40.6016 47.8533 40.5372C47.6753 40.4729 47.4614 40.4407 47.2117 40.4407C46.666 40.4407 46.2302 40.6245 45.9042 40.9922C45.5782 41.3598 45.4152 41.8745 45.4152 42.5363V45.9968H43.8267V39.1103H45.4152V40.0547H45.436C45.7273 39.7146 46.0741 39.455 46.4764 39.2757C46.8788 39.0965 47.3065 39.0069 47.7597 39.0069C48.5551 39.0069 49.1782 39.247 49.629 39.7273C50.0799 40.2075 50.3053 40.9462 50.3053 41.9435ZM54.5967 46.1071C55.54 46.1071 56.2753 45.7624 56.8025 45.0731H56.8233V45.9968H58.3423V39.1103H56.7539V39.9375H56.7262C56.199 39.3171 55.4845 39.0069 54.5828 39.0069C54.1111 39.0069 53.6695 39.0965 53.2579 39.2757C52.8464 39.455 52.4926 39.7008 52.1967 40.0133C51.9007 40.3258 51.6672 40.705 51.4961 41.1507C51.325 41.5965 51.2395 42.0744 51.2395 42.5846C51.2395 43.1085 51.325 43.591 51.4961 44.0322C51.6672 44.4733 51.9007 44.8456 52.1967 45.1489C52.4926 45.4522 52.8475 45.6877 53.2614 45.8555C53.6753 46.0232 54.1204 46.1071 54.5967 46.1071ZM53.4105 44.0908C53.7805 44.4791 54.2591 44.6733 54.8464 44.6733C55.3967 44.6733 55.8626 44.4791 56.2441 44.0908C56.6256 43.7024 56.8163 43.2027 56.8163 42.5915C56.8163 41.9802 56.6302 41.469 56.2579 41.0577C55.8857 40.6464 55.4175 40.4407 54.8533 40.4407C54.2845 40.4407 53.8094 40.6372 53.4279 41.0301C53.0464 41.423 52.8556 41.9435 52.8556 42.5915C52.8556 43.2027 53.0406 43.7024 53.4105 44.0908ZM61.4926 43.884C61.8649 44.2447 62.3377 44.4251 62.9111 44.4251C63.4892 44.4251 63.9597 44.2355 64.3227 43.8564C64.6857 43.4773 64.8672 42.9959 64.8672 42.4122C64.8672 41.8332 64.6811 41.3621 64.3088 40.9991C63.9365 40.636 63.4707 40.4545 62.9111 40.4545C62.3238 40.4545 61.8475 40.6383 61.4822 41.006C61.1169 41.3736 60.9342 41.8493 60.9342 42.4329C60.9342 43.0395 61.1204 43.5232 61.4926 43.884ZM70.9273 46.1071C71.5747 46.1071 72.1446 45.9899 72.6371 45.7555C73.1296 45.5211 73.5331 45.204 73.8475 44.8042L72.7377 43.8598C72.303 44.4021 71.7273 44.6733 71.0105 44.6733C70.5019 44.6733 70.0706 44.5331 69.7169 44.2528C69.3631 43.9724 69.1354 43.5887 69.0337 43.1016H74.0834C74.1111 42.9361 74.125 42.727 74.125 42.4743C74.125 41.8079 73.9886 41.2128 73.7157 40.6889C73.4429 40.165 73.0498 39.7537 72.5365 39.455C72.0232 39.1562 71.4313 39.0069 70.7608 39.0069C70.2845 39.0069 69.8383 39.0931 69.4221 39.2654C69.0059 39.4377 68.6475 39.6778 68.347 39.9858C68.0464 40.2937 67.8105 40.6682 67.6394 41.1094C67.4683 41.5506 67.3828 42.0308 67.3828 42.5501C67.3828 43.2532 67.5377 43.8771 67.8475 44.4216C68.1574 44.9662 68.5805 45.3833 69.1169 45.6728C69.6533 45.9623 70.2568 46.1071 70.9273 46.1071ZM69.0614 41.8263H72.5296C72.4279 41.3989 72.2325 41.0611 71.9435 40.813C71.6545 40.5648 71.288 40.4407 70.8441 40.4407C70.4048 40.4407 70.0256 40.5614 69.7065 40.8026C69.3874 41.0439 69.1724 41.3851 69.0614 41.8263Z" fill="white"/>
</g>
<g id="Group 5">
<g id="Group 4">
<path id="Combined Shape" fill-rule="evenodd" clip-rule="evenodd" d="M15.34 40.1905C15.34 40.848 14.8162 41.381 14.17 41.381C13.5238 41.381 13 40.848 13 40.1905C13 39.533 13.5238 39 14.17 39C14.8162 39 15.34 39.533 15.34 40.1905ZM15.34 44.4762C15.34 45.1337 14.8162 45.6667 14.17 45.6667C13.5238 45.6667 13 45.1337 13 44.4762C13 43.8187 13.5238 43.2857 14.17 43.2857C14.8162 43.2857 15.34 43.8187 15.34 44.4762ZM18.382 41.381C19.0282 41.381 19.552 40.848 19.552 40.1905C19.552 39.533 19.0282 39 18.382 39C17.7358 39 17.212 39.533 17.212 40.1905C17.212 40.848 17.7358 41.381 18.382 41.381Z" fill="white"/>
<ellipse id="Oval Copy 3" opacity="0.5" cx="18.382" cy="44.5238" rx="1.17" ry="1.19048" fill="white"/>
</g>
</g>
</g>
</g>
</g>
<defs>
<filter id="filter0_i" x="0" y="0" width="88" height="88" filterUnits="userSpaceOnUse" color-interpolation-filters="sRGB">
<feFlood flood-opacity="0" result="BackgroundImageFix"/>
<feBlend mode="normal" in="SourceGraphic" in2="BackgroundImageFix" result="shape"/>
<feColorMatrix in="SourceAlpha" type="matrix" values="0 0 0 0 0 0 0 0 0 0 0 0 0 0 0 0 0 0 127 0" result="hardAlpha"/>
<feOffset/>
<feGaussianBlur stdDeviation="17.5"/>
<feComposite in2="hardAlpha" operator="arithmetic" k2="-1" k3="1"/>
<feColorMatrix type="matrix" values="0 0 0 0 0 0 0 0 0 0 0 0 0 0 0 0 0 0 0.0452633 0"/>
<feBlend mode="normal" in2="shape" result="effect1_innerShadow"/>
</filter>
</defs>
</svg>

<svg width="88" height="88" fill="none" xmlns="http://www.w3.org/2000/svg"><g filter="url(#prefix__a)"><circle cx="44" cy="44" r="44" fill="#F3603C"/></g><path fill-rule="evenodd" clip-rule="evenodd" d="M62.856 48.892c.504 0 .954-.059 1.352-.176.398-.117.732-.28 1.002-.49.271-.208.495-.465.673-.768.178-.303.307-.634.385-.992a5.5 5.5 0 0 0 .118-1.18V39.11h-1.588v.724h-.028a2.969 2.969 0 0 0-.988-.62A3.222 3.222 0 0 0 62.62 39c-.634 0-1.203.15-1.707.448a3.09 3.09 0 0 0-1.175 1.244c-.28.531-.42 1.127-.42 1.79 0 .67.147 1.265.44 1.785.294.519.698.917 1.21 1.195a3.58 3.58 0 0 0 1.735.418c.86 0 1.56-.28 2.102-.841h.027v.73c0 .487-.18.892-.54 1.214-.361.321-.87.482-1.527.482-.448 0-.842-.055-1.182-.165a7.623 7.623 0 0 1-1.176-.517l-.374 1.392c.388.23.825.407 1.31.53.486.125.99.187 1.513.187zm-33.05-6.328v3.44h-1.588v-3.592c0-1.314-.46-1.971-1.38-1.971-.486 0-.885.19-1.197.568-.313.38-.469.898-.469 1.555v3.433h-1.588V39.11h1.588v.952h.021c.282-.34.612-.601.989-.783a2.678 2.678 0 0 1 1.175-.272c.967 0 1.656.381 2.067 1.144h.028c.291-.372.65-.656 1.075-.851a3.334 3.334 0 0 1 1.408-.293c.782 0 1.383.25 1.804.748.42.498.631 1.251.631 2.257v3.992h-1.588v-3.592c0-1.314-.453-1.971-1.36-1.971-.462 0-.847.19-1.155.568-.307.38-.461.898-.461 1.555zm11.068 2.51c-.527.688-1.262 1.033-2.206 1.033-.476 0-.921-.084-1.335-.252a3.088 3.088 0 0 1-1.065-.706 3.267 3.267 0 0 1-.7-1.117 3.97 3.97 0 0 1-.257-1.447c0-.51.086-.989.257-1.434.17-.446.404-.825.7-1.138a3.282 3.282 0 0 1 2.386-1.006c.902 0 1.617.31 2.144.93h.028v-.827h1.588v6.887h-1.519v-.924h-.02zm-1.956-.4c-.587 0-1.066-.195-1.436-.583-.37-.389-.555-.888-.555-1.5 0-.648.191-1.168.573-1.56.381-.394.856-.59 1.425-.59.564 0 1.032.205 1.405.617.372.411.558.922.558 1.534 0 .61-.19 1.11-.572 1.499a1.885 1.885 0 0 1-1.398.582zm11.387-2.73v4.06h-1.588V42.35c0-.358-.032-.662-.097-.91a1.353 1.353 0 0 0-.298-.59 1.177 1.177 0 0 0-.469-.313 1.894 1.894 0 0 0-.641-.096c-.546 0-.982.183-1.308.551-.326.368-.489.883-.489 1.544v3.46h-1.588V39.11h1.588v.945h.021c.291-.34.638-.6 1.04-.78.403-.178.83-.268 1.284-.268.795 0 1.418.24 1.869.72.45.48.676 1.22.676 2.217zm4.292 4.163c.943 0 1.678-.345 2.206-1.034h.02v.924h1.52V39.11h-1.59v.828h-.027c-.527-.62-1.242-.931-2.143-.931a3.282 3.282 0 0 0-2.386 1.006c-.296.313-.53.692-.7 1.138a3.967 3.967 0 0 0-.258 1.434c0 .523.086 1.006.257 1.447.171.441.405.814.7 1.117.297.303.651.539 1.065.706.414.168.86.252 1.336.252zm-1.187-2.016c.37.388.85.582 1.436.582.55 0 1.017-.194 1.398-.582.382-.389.572-.888.572-1.5 0-.61-.186-1.122-.558-1.533a1.814 1.814 0 0 0-1.405-.617c-.569 0-1.044.196-1.425.59-.382.392-.572.913-.572 1.56 0 .612.185 1.111.554 1.5zm8.083-.207c.372.36.845.541 1.418.541.578 0 1.049-.19 1.412-.569.363-.379.544-.86.544-1.444 0-.579-.186-1.05-.558-1.413-.372-.363-.838-.544-1.398-.544-.587 0-1.064.183-1.429.551-.365.368-.548.843-.548 1.427 0 .606.186 1.09.559 1.451zm9.434 2.223c.648 0 1.218-.117 1.71-.352a3.334 3.334 0 0 0 1.21-.95l-1.11-.945c-.434.542-1.01.813-1.727.813-.508 0-.94-.14-1.293-.42-.354-.28-.582-.664-.683-1.151h5.05c.027-.166.041-.375.041-.628 0-.666-.136-1.261-.41-1.785a3.009 3.009 0 0 0-1.178-1.234c-.514-.299-1.106-.448-1.776-.448-.477 0-.923.086-1.339.258a3.184 3.184 0 0 0-1.075.72c-.3.309-.536.683-.708 1.124a3.95 3.95 0 0 0-.256 1.441c0 .703.155 1.327.465 1.872.31.544.733.961 1.269 1.25.536.29 1.14.435 1.81.435zm-1.866-4.28h3.469c-.102-.428-.297-.766-.587-1.014-.288-.248-.655-.372-1.099-.372-.44 0-.818.12-1.137.362-.32.24-.535.582-.646 1.023z" fill="#fff"/><g fill="#fff"><path fill-rule="evenodd" clip-rule="evenodd" d="M15.34 40.19a1.18 1.18 0 0 1-1.17 1.191 1.18 1.18 0 0 1-1.17-1.19c0-.658.524-1.191 1.17-1.191.646 0 1.17.533 1.17 1.19zm0 4.286a1.18 1.18 0 0 1-1.17 1.19 1.18 1.18 0 0 1-1.17-1.19c0-.657.524-1.19 1.17-1.19.646 0 1.17.533 1.17 1.19zm3.042-3.095a1.18 1.18 0 0 0 1.17-1.19A1.18 1.18 0 0 0 18.382 39a1.18 1.18 0 0 0-1.17 1.19c0 .658.524 1.191 1.17 1.191z"/><ellipse opacity=".5" cx="18.382" cy="44.524" rx="1.17" ry="1.19"/></g><defs><filter id="prefix__a" x="0" y="0" width="88" height="88" filterUnits="userSpaceOnUse" color-interpolation-filters="sRGB"><feFlood flood-opacity="0" result="BackgroundImageFix"/><feBlend in="SourceGraphic" in2="BackgroundImageFix" result="shape"/><feColorMatrix in="SourceAlpha" values="0 0 0 0 0 0 0 0 0 0 0 0 0 0 0 0 0 0 127 0" result="hardAlpha"/><feOffset/><feGaussianBlur stdDeviation="17.5"/><feComposite in2="hardAlpha" operator="arithmetic" k2="-1" k3="1"/><feColorMatrix values="0 0 0 0 0 0 0 0 0 0 0 0 0 0 0 0 0 0 0.0452633 0"/><feBlend in2="shape" result="effect1_innerShadow"/></filter></defs></svg>
